X:64
T:I'd be a Butterfly
S:John Moore's Book 2
Z:Transcribed by Edmund Spriggs 04/2021
%%VWML: Moore1-4494-p47-0
F:http://www.vwml.org/record/Moore2/4494/p47
M:2/4
L:1/8
K:G
B2c>c|ddG2|g2(fe)|e2(dc)|
B2c>c|d>d ec|B2A>F|G2z2:|
|:A2(AB)|(cB)A2|A2(AB)|(cB)A2|
A2AA|B2(ge)|d2^c2|d>e d/c/B/A/|
B2c>c|d(dG2)|g2(fe)|e2(dc)|
B2c>c|d>d ec|B2A>F|G2z2:|

